!!!!SEGMENT: Ric2018-Homo_quidam.krn
!!!id: Ric2018
!!!AGN: Motet
!!!SCT: Elzinga (1999)
!!!voices: 5
!!!COM: Jean Richafort
!!!OTL: Homo quidam
**kern	**kern	**kern	**kern	**kern
*part5	*part4	*part3	*part2	*part1
*staff5	*staff4	*staff3	*staff2	*staff1
*I"Bassus	*I"Tenor II	*I"Tenor I	*I"Altus	*I"Superius
*I'B	*I'T. II	*I'T. I	*I'A	*I'S
*clefF4	*clefGv2	*clefGv2	*clefG2	*clefG2
*k[b-]	*k[b-]	*k[b-]	*k[b-]	*k[b-]
*F:	*F:	*F:	*F:	*F:
*M2/1	*M2/1	*M2/1	*M2/1	*M2/1
*met(C|)	*met(C|)	*met(C|)	*met(C|)	*met(C|)
!!section: Prima pars: Homo quidam
!!!OMD: Prima pars: Homo quidam
=1	=1	=1	=1	=1
0r	0r	0r	[0f	1cc
.	.	.	.	1dd
=2	=2	=2	=2	=2
0r	0r	0r	0f]	1cc
.	.	.	.	1dd
=3	=3	=3	=3	=3
0r	0r	0c	0g	0ee
=4	=4	=4	=4	=4
0r	0r	1d	1f	2.ff
.	.	.	.	4ee
.	.	1B-y	1g	1dd
=5	=5	=5	=5	=5
0r	[0F	[0A	0a	[0cc
=6	=6	=6	=6	=6
0r	0F]	0A]	2r	0cc_
.	.	.	1a	.
.	.	.	4g	.
.	.	.	4f	.
=7	=7	=7	=7	=7
0C	0G	1r	4e	0cc]
.	.	.	4d	.
.	.	.	1f	.
.	.	2.c	.	.
.	.	.	2e	.
.	.	4B-y	.	.
=8	=8	=8	=8	=8
1D	1F	4A	1f	0r
.	.	4G	.	.
.	.	4F	.	.
.	.	4E	.	.
1BB-y	1G	1D	1r	.
=9	=9	=9	=9	=9
0AA	0A	0E	0c	0cc
=10	=10	=10	=10	=10
[0D	[0F	1D	1.f	1.dd
.	.	2r	.	.
.	.	[2d	4e	4cc
.	.	.	4d	4b-y
=11	=11	=11	=11	=11
0D]	0F]	2d]	2.f	2a
.	.	4c	.	2.dd
.	.	4B-y	4g	.
.	.	2.A	1a	.
.	.	.	.	4ee
.	.	.	.	[2ff
.	.	4B-y	.	.
=12	=12	=12	=12	=12
0C	0G	0c	2r	2ff]
.	.	.	1g	4ee
.	.	.	.	4dd
.	.	.	.	1ee
.	.	.	2g	.
=13	=13	=13	=13	=13
1r	0F	2r	2.a	0ff
.	.	2.c	.	.
.	.	.	4b-y	.
2r	.	.	2cc	.
.	.	4A	.	.
[2F	.	4B-y	2f	.
.	.	4c	.	.
=14	=14	=14	=14	=14
2F]	0r	2A	1a	0r
4E	.	1d	.	.
4D	.	.	.	.
1E	.	.	1g	.
.	.	2c#i	.	.
=15	=15	=15	=15	=15
1.D	1r	0d	2r	0r
.	.	.	4a	.
.	.	.	4g	.
.	[1B-y	.	4f	.
.	.	.	4e	.
[2G	.	.	[2d	.
=16	=16	=16	=16	=16
2G]	2B-]	2r	4d]	0r
.	.	.	4e	.
4F	4A	1c	4f	.
4E	4G	.	4g	.
1F	1A	.	2c	.
.	.	4B-y	2cc	.
.	.	4A	.	.
=17	=17	=17	=17	=17
1G	1.G	2.B-y	4b-y	1dd
.	.	.	4g	.
.	.	.	4a	.
.	.	4A	4b-y	.
1C	.	2G	1cc	1ee
.	[2c	[2A	.	.
=18	=18	=18	=18	=18
0D	2c]	4A]	0r	1.ff
.	.	4G	.	.
.	4Bni	4F	.	.
.	4A	4E	.	.
.	1Bni	1F	.	.
.	.	.	.	4ee
.	.	.	.	4dd
=19	=19	=19	=19	=19
[0C	[0c	0G	0cc	[0ee
=20	=20	=20	=20	=20
0C]	0c_	2r	1g	0ee]
.	.	1G	.	.
.	.	.	2.cc	.
.	.	[2c	.	.
.	.	.	4b-y	.
=21	=21	=21	=21	=21
2r	0c]	4c]	4a	0r
.	.	4B-y	4g	.
2F	.	4A	2.cc	.
.	.	4G	.	.
2.F	.	2F	.	.
.	.	.	4b-y	.
.	.	[2f	[2a	.
4G	.	.	.	.
=22	=22	=22	=22	=22
2A	0r	2f]	2a]	0r
2B-y	.	4e	4g	.
.	.	4d	4f	.
1G	.	1e	1g	.
=23	=23	=23	=23	=23
[0F	1r	[0f	[0a	0cc
.	[1c	.	.	.
=24	=24	=24	=24	=24
0F_	1c]	0f]	0a]	2.cc
.	.	.	.	4b-y
.	2.c	.	.	4a
.	.	.	.	4g
.	.	.	.	[2cc
.	4B-y	.	.	.
=25	=25	=25	=25	=25
0F]	4A	0r	0r	4cc]
.	4G	.	.	4b-y
.	1c	.	.	1a
.	4B-y	.	.	4g
.	4A	.	.	4f
=26	=26	=26	=26	=26
0r	2G	2r	0r	2e
.	2A	2F	.	1a
.	1B-y	2D	.	.
.	.	2E	.	2g
=27	=27	=27	=27	=27
1.D	[0A	1F	0dd	0a
.	.	1r	.	.
2E	.	.	.	.
=28	=28	=28	=28	=28
0F	0A]	2r	2cc	1r
.	.	2.F	2a	.
.	.	.	[1dd	1f
.	.	4G	.	.
.	.	4A	.	.
.	.	4F	.	.
=29	=29	=29	=29	=29
0C	1.G	0c	2dd]	1g
.	.	.	4cc	.
.	.	.	4b-y	.
.	.	.	1g	1e
.	2A	.	.	.
=30	=30	=30	=30	=30
1r	0B-y	1d	1f	0d
[1BB-y	.	2r	[1b-y	.
.	.	[2d	.	.
=31	=31	=31	=31	=31
2BB-]	0F	2d]	2b-]	1r
2C	.	1c	1a	.
1D	.	.	.	1dd
.	.	2B-y	4g	.
.	.	.	4f	.
=32	=32	=32	=32	=32
0C	0G	[0c	2e	2b-y
.	.	.	1f	2.cc
.	.	.	.	4b-y
.	.	.	2e	4a
.	.	.	.	4g
=33	=33	=33	=33	=33
[0F	0F	0c]	1f	2a
.	.	.	.	4f
.	.	.	.	4g
.	.	.	1r	4a
.	.	.	.	4b-y
.	.	.	.	[2cc
=34	=34	=34	=34	=34
0F]	0r	0r	1.f	4cc]
.	.	.	.	4b-y
.	.	.	.	1a
.	.	.	4e	4g
.	.	.	4d	4f
=35	=35	=35	=35	=35
0r	0r	2.c	2.e	2.g
.	.	8B-yL	4f	4a
.	.	8AJ	.	.
.	.	2G	4g	4b-y
.	.	.	4e	4cc
.	.	2F	[2f	[2dd
=36	=36	=36	=36	=36
0r	0r	1A	4f]	2dd]
.	.	.	4e	.
.	.	.	4d	1cc
.	.	.	4c	.
.	.	1G	1d	.
.	.	.	.	2bni
=37	=37	=37	=37	=37
1F	1F	2.A	1c	1cc
.	.	4B-y	.	.
1E	1G	4c	1r	2r
.	.	4d	.	.
.	.	[2c	.	2cc
=38	=38	=38	=38	=38
0D	1A	2c]	0r	2dd
.	.	4Bni	.	1ff
.	.	4A	.	.
.	1F	1Bni	.	.
.	.	.	.	4ee
.	.	.	.	4dd
=39	=39	=39	=39	=39
0C	0G	4c	2.cc	2.ee
.	.	4d	.	.
.	.	4e	.	.
.	.	4f	4b-y	4dd
.	.	2g	4cc	4ee
.	.	.	4b-y	4dd
.	.	2e	4a	4cc
.	.	.	4g	4b-y
=40	=40	=40	=40	=40
1.D	0r	4f	2.f	1a
.	.	4e	.	.
.	.	4d	.	.
.	.	4c	4e	.
.	.	1d	2f	1r
2E	.	.	2g	.
=41	=41	=41	=41	=41
[0F	0r	[0A	[0a	1.ff
.	.	.	.	2ff
=42	=42	=42	=42	=42
1F]	0r	1A]	0a]	1.ff
2r	.	2r	.	.
[2F	.	[2f	.	4ee
.	.	.	.	4dd
=43	=43	=43	=43	=43
2F]	2r	2f]	[0a	1cc
2F	1c	2f	.	.
1F	.	1f	.	2r
.	2c	.	.	2cc
=44	=44	=44	=44	=44
2r	1c	2r	0a]	2cc
2F	.	2f	.	2cc
2F	2r	2f	.	2a
2F	2c	2f	.	[2cc
=45	=45	=45	=45	=45
1C	2c	1e	0r	4cc]
.	.	.	.	4b-y
.	2c	.	.	4a
.	.	.	.	4g
2r	2A	2r	.	2f
2C	2c	[2e	.	[2g
=46	=46	=46	=46	=46
2E	2B-y	2e]	0r	2g]
2F	2A	2d	.	1f
1C	1G	1c	.	.
.	.	.	.	2e
=47	=47	=47	=47	=47
1F	1F	1A	2r	1f
.	.	.	1cc	.
2r	1r	2r	.	2r
[2F	.	[2f	2cc	[2a
=48	=48	=48	=48	=48
2F]	2r	2f]	1cc	2a]
2F	1c	2f	.	2a
1F	.	1f	2r	1a
.	2c	.	2cc	.
=49	=49	=49	=49	=49
2r	1c	2r	2cc	2r
2F	.	2f	2cc	2a
2F	2r	2f	2a	2a
2F	2c	2f	[2cc	2a
=50	=50	=50	=50	=50
1C	2c	1e	4cc]	1g
.	.	.	4b-y	.
.	2c	.	4a	.
.	.	.	4g	.
2r	2A	2r	2f	1r
2C	2c	[2e	[2g	.
=51	=51	=51	=51	=51
2E	2B-y	2e]	2g]	2r
2F	2A	2d	1f	2f
1C	1G	1c	.	2g
.	.	.	2e	2g
=52	=52	=52	=52	=52
[0F	[0F	[0c	1f	0a
.	.	.	2r	.
.	.	.	2cc	.
=53	=53	=53	=53	=53
0F_	0F]	0c]	1cc	1r
.	.	.	1a	1cc
=54	=54	=54	=54	=54
0F]	1r	0r	2r	0cc
.	.	.	4f	.
.	.	.	4g	.
.	[1F	.	4a	.
.	.	.	4b-y	.
.	.	.	[2cc	.
=55	=55	=55	=55	=55
0r	1F]	0r	2cc]	1a
.	.	.	4b-y	.
.	.	.	4a	.
.	1G	.	1b-y	1dd
=56	=56	=56	=56	=56
0r	2A	0r	1.a	1.cc
.	2.F	.	.	.
.	4G	.	.	.
.	4A	.	4g	4b-y
.	4B-y	.	4f	4a
=57	=57	=57	=57	=57
0r	1c	0r	2e	2g
.	.	.	2.a	2.cc
.	2.F	.	.	.
.	.	.	4g	4b-y
.	.	.	[2f	[2a
.	4G	.	.	.
=58	=58	=58	=58	=58
0r	2A	0r	2f]	2a]
.	2B-y	.	4e	4g
.	.	.	4d	4f
.	1G	.	1e	1g
=59	=59	=59	=59	=59
0r	0F	0r	0f	1a
.	.	.	.	2r
.	.	.	.	[2ff
=60	=60	=60	=60	=60
0r	1r	0r	1r	4ff]
.	.	.	.	4ee
.	.	.	.	4dd
.	.	.	.	4cc
.	4BB-y	.	1b-y	1dd
.	4C	.	.	.
.	4D	.	.	.
.	4E	.	.	.
=61	=61	=61	=61	=61
0r	4F	0r	1a	2.cc
.	4G	.	.	.
.	4A	.	.	.
.	4B-y	.	.	4dd
.	2c	.	2g	2ee
.	2A	.	[2a	[2ff
=62	=62	=62	=62	=62
0r	1d	0r	2a]	2ff]
.	.	.	4g	4ee
.	.	.	4f	4dd
.	1c	.	1g	1ee
=63	=63	=63	=63	=63
0r	[0F	2r	0f	1ff
.	.	2c	.	.
.	.	2c	.	2r
.	.	2c	.	2cc
=64	=64	=64	=64	=64
0r	0F]	2A	2r	2cc
.	.	2.c	2cc	2cc
.	.	.	2cc	2.a
.	.	4B-y	.	.
.	.	4A	2cc	.
.	.	4G	.	4b-y
=65	=65	=65	=65	=65
0r	0r	2.F	2a	2cc
.	.	.	4g	1dd
.	.	4G	4f	.
.	.	1A	1e	.
.	.	.	.	2cc#i
=66	=66	=66	=66	=66
0r	0r	2r	1d	0dd
.	.	2D	.	.
.	.	2F	2r	.
.	.	2G	2d	.
=67	=67	=67	=67	=67
0r	0r	4D	1f	2r
.	.	4E	.	.
.	.	4F	.	2a
.	.	4G	.	.
.	.	4A	1e	1cc
.	.	4G	.	.
.	.	4E	.	.
.	.	4F	.	.
=68	=68	=68	=68	=68
0r	0r	2.G	1.d	1b-y
.	.	4F	.	.
.	.	2.D	.	[1a
.	.	.	[2f	.
.	.	4E	.	.
=69	=69	=69	=69	=69
0r	0r	4F	2f]	2a]
.	.	4G	.	.
.	.	4A	4e	1cc
.	.	4B-y	4d	.
.	.	[1c	2.c	.
.	.	.	.	4b-y
.	.	.	4d	4a
=70	=70	=70	=70	=70
0r	0r	2c]	2e	2.g
.	.	4B-y	4c	.
.	.	4A	4d	4f
.	.	2.G	4e	4g
.	.	.	4f	4a
.	.	.	[2g	[2b-y
.	.	4A	.	.
=71	=71	=71	=71	=71
1r	0r	4B-y	2g]	4b-]
.	.	4c	.	4a
.	.	2d	1f	4g
.	.	.	.	4f
1C	.	1c	.	1g
.	.	.	2e	.
=72	=72	=72	=72	=72
1.F	1r	2A	2f	0f
.	.	4F	1a	.
.	.	4G	.	.
.	1F	4A	.	.
.	.	4B-y	.	.
4E	.	[2c	4g	.
4D	.	.	4f	.
=73	=73	=73	=73	=73
2E	0c	4c]	2g	0r
.	.	4B-y	.	.
1F	.	1A	2a	.
.	.	.	4f	.
.	.	.	4g	.
4E	.	4G	4a	.
4D	.	4F	4b-y	.
=74	=74	=74	=74	=74
1C	1c	2G	1cc	0r
.	.	2A	.	.
[1BB-y	[1d	[1B-y	1f	.
=75	=75	=75	=75	=75
2BB-]	1d]	1B-]	0r	0f
2C	.	.	.	.
1D	1B-y	2r	.	.
.	.	2F	.	.
=76	=76	=76	=76	=76
0C	0c	2G	0r	0cc
.	.	1A	.	.
.	.	2G	.	.
=77	=77	=77	=77	=77
1AA	1c	1A	1r	1cc
1BB-y	2.B-y	1F	1f	1dd
.	4A	.	.	.
=78	=78	=78	=78	=78
[0C	0G	1r	1.cc	2.ee
.	.	.	.	4dd
.	.	[1c	.	4ee
.	.	.	.	4ff
.	.	.	2b-y	[2gg
=79	=79	=79	=79	=79
1C]	1r	2c]	2a	2gg]
.	.	4B-y	4g	1ff
.	.	4A	4f	.
2r	1c	1G	1g	.
2C	.	.	.	2ee
=80	=80	=80	=80	=80
1D	1A	0d	0f	1ff
1BB-y	1B-y	.	.	2r
.	.	.	.	[2ff
=81	=81	=81	=81	=81
0C	1.G	0c	0r	2ff]
.	.	.	.	4ee
.	.	.	.	4dd
.	.	.	.	1ee
.	2A	.	.	.
=82	=82	=82	=82	=82
1r	1.B-y	1d	1f	0dd
[1BB-y	.	2r	[1b-y	.
.	4A	[2d	.	.
.	4G	.	.	.
=83	=83	=83	=83	=83
2BB-]	0F	2d]	2b-]	1r
2C	.	1c	1a	.
1D	.	.	.	1dd
.	.	2Bni	4g	.
.	.	.	4f	.
=84	=84	=84	=84	=84
0C	0G	[0cl	2e	2g
.	.	.	1f	2.cc
.	.	.	.	4b-y
.	.	.	2e	4a
.	.	.	.	4g
=	=	=	=	=
00F	00F	00c]	00f	00a
=||	=||	=||	=||	=||
*M2/1	*M2/1	*M2/1	*M2/1	*M2/1
*met(C|)	*met(C|)	*met(C|)	*met(C|)	*met(C|)
!!section: Secunda pars: O quam suavis est
!!!OMD: Secunda pars: O quam suavis est
[0BB-y	[0F	[0B-y	0f	[0dd
=85	=85	=85	=85	=85
0BB-]	0F]	0B-_	1.b-y	0dd]
.	.	.	2a	.
=86	=86	=86	=86	=86
1.E-X	[0G	0B-]	[0g	1.b-y
2D	.	.	.	4cc
.	.	.	.	4dd
=87	=87	=87	=87	=87
1.C	0G]	[0c	0g]	1.ee-X
4D	.	.	.	4dd
4E	.	.	.	4cc
=88	=88	=88	=88	=88
1F	[0A	1.c]	[0f	2cc
.	.	.	.	4dd
.	.	.	.	4ee
[1D	.	.	.	[1ff
.	.	[2d	.	.
=89	=89	=89	=89	=89
2D]	0A]	4d]	0f]	2ff]
.	.	4c	.	.
2E	.	4A	.	4ee
.	.	4B-y	.	4dd
1F	.	1c	.	1cc
=90	=90	=90	=90	=90
2.BB-y	0F	4B-y	2r	1dd
.	.	4A	.	.
.	.	1B-y	2.d	.
4C	.	.	.	.
1D	.	.	.	2r
.	.	.	4e	.
.	.	4A	[2f	2dd
.	.	4B-y	.	.
=91	=91	=91	=91	=91
0C	0G	2.c	2f]	2g
.	.	.	4e	2.cc
.	.	4B-y	4d	.
.	.	2G	1e	.
.	.	.	.	4b-y
.	.	[2c	.	4a
.	.	.	.	4g
=92	=92	=92	=92	=92
1r	0F	4c]	1.f	1a
.	.	4B-y	.	.
.	.	4A	.	.
.	.	4G	.	.
1F	.	1A	.	1r
.	.	.	4e	.
.	.	.	4d	.
=93	=93	=93	=93	=93
1F	1r	1r	0c	0cc
1E	1G	1c	.	.
=94	=94	=94	=94	=94
0D	1F	1A	1r	1dd
.	1F	1B-y	1d	1dd
=95	=95	=95	=95	=95
[0C	[0G	0c	1g	[0ee
.	.	.	1g	.
=96	=96	=96	=96	=96
0C_	0G_	1r	1e	0ee]
.	.	[1c	2r	.
.	.	.	[2g	.
=97	=97	=97	=97	=97
0C]	0G]	2c]	4g]	0r
.	.	.	4f	.
.	.	2c	4e	.
.	.	.	4d	.
.	.	1c	2e	.
.	.	.	2e	.
=98	=98	=98	=98	=98
1.F	0r	2r	1f	1.a
.	.	2c	.	.
.	.	2A	2r	.
2F	.	[2c	2cc	2a
=99	=99	=99	=99	=99
[0F	1.c	4c]	2a	1a
.	.	4B-y	.	.
.	.	4A	2.cc	.
.	.	4G	.	.
.	.	2F	.	2r
.	.	.	4b-y	.
.	2c	[2f	4a	2cc
.	.	.	4g	.
=100	=100	=100	=100	=100
0F]	0c	2f]	1f	2a
.	.	4e	.	2.cc
.	.	4d	.	.
.	.	2c	2.ff	.
.	.	.	.	4b-y
.	.	[2f	.	4a
.	.	.	4ee	4g
=101	=101	=101	=101	=101
0r	0r	4f]	4dd	2f
.	.	4e	4cc	.
.	.	4d	2.dd	2.ff
.	.	4c	.	.
.	.	2B-y	.	.
.	.	.	4cc	4ee
.	.	2c	[2cc	4dd
.	.	.	.	4cc
=102	=102	=102	=102	=102
0r	0r	1G	2cc]	1dd
.	.	.	2b-y	.
.	.	2c	2a	2cc
.	.	2B-y	[2b-y	[2ff
=103	=103	=103	=103	=103
0r	1r	1d	4b-]	2ff]
.	.	.	4a	.
.	.	.	4g	4ee
.	.	.	4f	4dd
.	[1c	1c	1g	1ee
=104	=104	=104	=104	=104
1.F	2c]	0A	[0f	[0ff
.	2c	.	.	.
.	2A	.	.	.
2F	[2d	.	.	.
=105	=105	=105	=105	=105
2D	2d]	0r	0f]	0ff]
2.F	4c	.	.	.
.	4B-y	.	.	.
.	4A	.	.	.
4E	4G	.	.	.
4D	[2d	.	.	.
4C	.	.	.	.
=106	=106	=106	=106	=106
2BB-y	4d]	1r	0r	0r
.	4c	.	.	.
2C	1c	.	.	.
1D	.	1F	.	.
.	2Bni	.	.	.
=107	=107	=107	=107	=107
[0C	[0c	1.G	2r	0ee
.	.	.	1g	.
.	.	2A	2c	.
=108	=108	=108	=108	=108
0C_	1.c]	2G	1e	1ee
.	.	1A	.	.
.	.	.	[1e	1ee
.	4B-y	4G	.	.
.	4A	4F	.	.
=109	=109	=109	=109	=109
0C]	0G	1G	2e]	1.cc
.	.	.	2e	.
.	.	2.c	1e	.
.	.	.	.	2cc
.	.	4B-y	.	.
=110	=110	=110	=110	=110
1r	[0F	4A	1.a	0cc
.	.	4G	.	.
.	.	2.c	.	.
1F	.	.	.	.
.	.	4B-y	.	.
.	.	4A	4g	.
.	.	4G	4f	.
=111	=111	=111	=111	=111
1F	0F]	1A	[0f	0r
[1BB-y	.	1B-y	.	.
=112	=112	=112	=112	=112
1BB-]	0r	1d	1f]	1.ff
[1F	.	1c	2r	.
.	.	.	[2cc	4ee
.	.	.	.	4dd
=113	=113	=113	=113	=113
2F]	0r	0c	4cc]	4cc
.	.	.	4b-y	4a
2F	.	.	2.a	2.cc
2.F	.	.	.	.
.	.	.	4g	4b-y
.	.	.	[2f	[2a
4G	.	.	.	.
=114	=114	=114	=114	=114
2A	0r	0r	2f]	2a]
2B-y	.	.	4e	4g
.	.	.	4d	4f
1G	.	.	1e	1g
=115	=115	=115	=115	=115
[0F	[0A	2r	[0f	[0a
.	.	1c	.	.
.	.	2d	.	.
=116	=116	=116	=116	=116
0F_	0A]	2c	0f]	0a_
.	.	2.d	.	.
.	.	4c	.	.
.	.	[2f	.	.
=117	=117	=117	=117	=117
0F]	1A	2f]	0r	0a]
.	.	4e	.	.
.	.	4d	.	.
.	1F	2c	.	.
.	.	[2d	.	.
=118	=118	=118	=118	=118
0r	1.G	4d]	0r	0r
.	.	4c	.	.
.	.	4B-y	.	.
.	.	4A	.	.
.	.	2G	.	.
.	2F	[2d	.	.
=119	=119	=119	=119	=119
0r	2E	2d]	0r	0r
.	4D	1c	.	.
.	4C	.	.	.
.	1D	.	.	.
.	.	2Bni	.	.
=120	=120	=120	=120	=120
1.C	1C	0c	1.e	2r
.	.	.	.	1g
.	1r	.	.	.
2AA	.	.	2e	2a
=121	=121	=121	=121	=121
2C	0c	0r	2.e	2g
2AA	.	.	.	2a
.	.	.	4f	.
2C	.	.	2g	2g
2C	.	.	2g	[2cc
=122	=122	=122	=122	=122
1FF	1c	1F	1a	2cc]
.	.	.	.	4b-y
.	.	.	.	4a
1r	2B-y	2G	1r	2g
.	2c	2F	.	[2a
=123	=123	=123	=123	=123
0r	2.d	1D	0r	4a]
.	.	.	.	4g
.	.	.	.	4f
.	4c	.	.	4e
.	4B-y	2.G	.	2d
.	4A	.	.	.
.	[2B-y	.	.	[2g
.	.	4F	.	.
=124	=124	=124	=124	=124
0r	4B-]	2E	0r	4g]
.	4A	.	.	4f
.	4G	2F	.	1f
.	4F	.	.	.
.	1G	1C	.	.
.	.	.	.	2e
=125	=125	=125	=125	=125
0r	[0F	0c	1.a	1f
.	.	.	.	2r
.	.	.	4g	[2a
.	.	.	4f	.
=126	=126	=126	=126	=126
0r	0F]	0r	1cc	2a]
.	.	.	.	4g
.	.	.	.	4f
.	.	.	1a	1cc
=127	=127	=127	=127	=127
0r	0r	0r	2r	1a
.	.	.	2f	.
.	.	.	2.a	2r
.	.	.	.	2f
.	.	.	4b-y	.
=128	=128	=128	=128	=128
0r	0r	0r	2cc	2.a
.	.	.	2cc	.
.	.	.	.	4b-y
.	.	.	2r	1cc
.	.	.	2cc	.
=129	=129	=129	=129	=129
0r	0r	0r	2a	2r
.	.	.	2f	2cc
.	.	.	2.cc	2a
.	.	.	.	2f
.	.	.	4b-y	.
=130	=130	=130	=130	=130
0r	0r	0r	4a	2.cc
.	.	.	4g	.
.	.	.	1a	.
.	.	.	.	4b-y
.	.	.	.	2cc
.	.	.	4g	[2dd
.	.	.	4f	.
=131	=131	=131	=131	=131
0r	0r	2r	2e	2dd]
.	.	2F	2f	1cc
.	.	1G	1d	.
.	.	.	.	2bni
=132	=132	=132	=132	=132
0r	0r	2.A	0c	1cc
.	.	4G	.	.
.	.	4F	.	2r
.	.	4E	.	.
.	.	[2F	.	2cc
=133	=133	=133	=133	=133
0r	0r	4F]	0r	1.dd
.	.	4D	.	.
.	.	2.G	.	.
.	.	4A	.	.
.	.	4B-y	.	4cc
.	.	4c	.	4b-y
=134	=134	=134	=134	=134
0r	0r	4d	0r	2a
.	.	4e	.	.
.	.	1f	.	4f
.	.	.	.	4g
.	.	.	.	4a
.	.	.	.	4b-y
.	.	4e	.	[2cc
.	.	4d	.	.
=135	=135	=135	=135	=135
0r	0r	2c	0r	4cc]
.	.	.	.	4b-y
.	.	2d	.	1a
.	.	1B-y	.	.
.	.	.	.	2g
=136	=136	=136	=136	=136
1.F	2r	1A	0r	0a
.	1A	.	.	.
.	.	1r	.	.
4E	4G	.	.	.
4D	4F	.	.	.
=137	=137	=137	=137	=137
2E	1G	0r	0r	0r
2C	.	.	.	.
2.D	2.F	.	.	.
4E	4G	.	.	.
=138	=138	=138	=138	=138
2F	2A	0r	0r	0r
2G	2B-y	.	.	.
2E	2c	.	.	.
[2F	[2d	.	.	.
=139	=139	=139	=139	=139
4F]	2d]	0r	0r	0r
4E	.	.	.	.
4D	1c	.	.	.
4C	.	.	.	.
1D	.	.	.	.
.	2Bni	.	.	.
=140	=140	=140	=140	=140
1C	0c	0r	0r	0r
2r	.	.	.	.
[2F	.	.	.	.
=141	=141	=141	=141	=141
4F]	2r	0r	0r	0r
4E	.	.	.	.
4D	1d	.	.	.
4C	.	.	.	.
2.BB-y	.	.	.	.
.	4c	.	.	.
4C	4B-y	.	.	.
=142	=142	=142	=142	=142
4D	2A	0r	0r	0r
4E	.	.	.	.
1F	4F	.	.	.
.	4G	.	.	.
.	4A	.	.	.
.	4B-y	.	.	.
4E	[2c	.	.	.
4D	.	.	.	.
=143	=143	=143	=143	=143
2C	4c]	0r	0r	0r
.	4B-y	.	.	.
2D	1A	.	.	.
1BB-y	.	.	.	.
.	2G	.	.	.
=144	=144	=144	=144	=144
[0AA	[0A	0r	[0cc	0r
=145	=145	=145	=145	=145
0AA]	0A]	0r	1cc]	1r
.	.	.	1a	1cc
=146	=146	=146	=146	=146
0r	1r	0r	1b-y	1dd
.	[1c	.	2g	2.ee
.	.	.	[2a	.
.	.	.	.	4dd
=147	=147	=147	=147	=147
0C	0c]	1r	2a]	8ccL
.	.	.	.	8dd
.	.	.	.	8ee
.	.	.	.	8ccJ
.	.	.	4g	1ff
.	.	.	4f	.
.	.	1G	1g	.
.	.	.	.	2ee
=148	=148	=148	=148	=148
1D	1A	0d	0f	1ff
1BB-y	1B-y	.	.	2r
.	.	.	.	[2ff
=149	=149	=149	=149	=149
0C	1.G	0c	0r	2ff]
.	.	.	.	4ee
.	.	.	.	4dd
.	.	.	.	1ee
.	2A	.	.	.
=150	=150	=150	=150	=150
1r	1.B-y	1d	1f	0dd
[1BB-y	.	2r	1b-y	.
.	4A	[2d	.	.
.	4G	.	.	.
=151	=151	=151	=151	=151
2BB-]	0F	2d]	2b-y	1r
2C	.	1c	1a	.
1D	.	.	.	1dd
.	.	2Bni	4g	.
.	.	.	4f	.
=152	=152	=152	=152	=152
0C	0G	0c	2e	2g
.	.	.	1f	2.cc
.	.	.	.	4b-y
.	.	.	2e	4a
.	.	.	.	4g
=153	=153	=153	=153	=153
[0F	0F	[0c	1f	1a
.	.	.	[1cc	1a
=154	=154	=154	=154	=154
0F]	0r	1.c]	1cc]	1r
.	.	.	1a	1cc
.	.	4B-y	.	.
.	.	4A	.	.
=155	=155	=155	=155	=155
0r	1r	1G	1b-y	1dd
.	[1c	1r	2g	2.ee
.	.	.	[2a	.
.	.	.	.	4dd
=156	=156	=156	=156	=156
0C	0c]	1r	2a]	4ee
.	.	.	.	4cc
.	.	.	4g	1ff
.	.	.	4f	.
.	.	1G	1g	.
.	.	.	.	2ee
=157	=157	=157	=157	=157
1D	1A	0d	0f	1ff
1BB-y	1B-y	.	.	2r
.	.	.	.	[2ff
=158	=158	=158	=158	=158
0C	1.G	0c	0r	2ff]
.	.	.	.	4ee
.	.	.	.	4dd
.	.	.	.	1ee
.	2A	.	.	.
=159	=159	=159	=159	=159
1r	1.B-y	1d	1f	0dd
[1BB-y	.	2r	[1b-y	.
.	4A	[2d	.	.
.	4G	.	.	.
=160	=160	=160	=160	=160
2BB-]	0F	2d]	2b-]	1r
2C	.	1c	1a	.
1D	.	.	.	1dd
.	.	2Bni	4g	.
.	.	.	4f	.
=161	=161	=161	=161	=161
0C	0G	[0c	2e	2g
.	.	.	1f	2.cc
.	.	.	.	4b-y
.	.	.	2e	4a
.	.	.	.	4g
=162	=162	=162	=162	=162
[0Fl	[0Fl	0c]	[0fl	1.a
.	.	.	.	4g
.	.	.	.	4f
=163	=163	=163	=163	=163
0F_	0F_	1.A	0f_	[0ccl
.	.	4G	.	.
.	.	4F	.	.
=164	=164	=164	=164	=164
00F]	00F]	00cl	00f]	00cc]
==	==	==	==	==
*-	*-	*-	*-	*-
!!!system-decoration: [*]
!!!RDF**kern: i = editorial accidental
!!!RDF**kern: l = terminal long
!!!ENC: Benjamin Ory
!!!END: 2021/1/25
!!!EED: Benjamin Ory
!!!EEV: 2021/05/11
!!!YEC: Copyright 2021 Benjamin Ory, All Rights Reserved
!!!ONB: Translated from MusicXML on 2021/05/11
